X: 8372
T: Courting Is A Pleasure
R: slide
M: 12/8
K: Edorian
G2F2|E2E EDE F2E FAF|B3- B2c d2B e2d|B3 A2F ~E3 ED[B,B]|D6 zBB AFD|
~E3 EFA F2E FAF|B3- B2c d3 fed|B2d A2F FGG EDF|E3-E2F EFG ABd|
e3 E3 G3 B2G|e3 fed- df2- fed|B3 A2F ~E3 ED[B,B]|D6 zBd A/F/D|
~E3 EFA F2E FAF|B3- B2c d2f e2d|B3 A2F ~G3 EDF|E8|

